X:346
T:Buachaill on Eirne
T:Come By the Hills
M:6/4
L:1/8
K:G major
%
"G"B3 A B2 "C"A3 G E2 | "G"D3 D D2 "C"E G3 G2 | \
"G"G6-G4 D2 | "G"G3 A B2 "C"c3 B A2 |
%
"D"d3 d d2 "G"B3 G B2 | "D"A6-"D7"A4 d2 | \
"G"d3 B A2 G3 A B2 | "C"c3 d e2 "G"d3 B G2 |
%
"D"A6-A4 GA | "G"B3 A B2 "C"A3 G E2 | \
"G"D4 D2 "C"E G3 G2 | "G"G6-G4 z2 |]

